X: 574
T: Girls of Our Town., The
T: caillini.de ar .bailesa., na
R:jig
N:"With spirit." "Collected from J. O'Neill."
B:O'Neill's 574
Z:Transcribed by J.B. Walsh, walsh@math.ubc.ca
M:6/8
%Q:90
K:D
A|(d>ed) (f>gf)|e>de d2 d|f>ef dfa|b3 a2 (b/c'/)|
d'>c'b (ad')f|e>de fdB|A>BA Adf|e3 d2||
a|afd dd'c'|baf a2a|f>ed dcd|e3-e2 a|
afd dd'c'|baf a2A|A>BA Adf|e3 d2||


